svg/fluentui-system-icons/ic_fluent_brain_circuit_24_filled.svg

<svg width="24" height="24" viewBox="0 0 24 24" fill="none" xmlns="http://www.w3.org/2000/svg">
<path d="M10.1395 2.00586C10.8472 2.00586 11.25 2.70974 11.25 3.4174V7.74999H10.3546C10.0579 7.01704 9.33934 6.5 8.5 6.5C7.39543 6.5 6.5 7.39543 6.5 8.5C6.5 9.60457 7.39543 10.5 8.5 10.5C9.33935 10.5 10.0579 9.98295 10.3546 9.24999H11.25V20.1479C11.25 20.744 10.998 21.3369 10.4673 21.6086C10.0134 21.841 9.49052 21.9961 8.90795 21.9961C7.39728 21.9961 6.27382 21.2319 5.55102 20.3276C5.02027 19.6636 4.67139 18.8831 4.5319 18.1905C4.1292 18.0735 3.67439 17.8544 3.26232 17.5009C2.55214 16.8917 2 15.9108 2 14.4663C2 13.711 2.05401 13.0532 2.18937 12.5H6.3998C7.07792 12.5 7.63926 13 7.7353 13.6514C7.01014 13.9517 6.5 14.6663 6.5 15.5C6.5 16.6046 7.39543 17.5 8.5 17.5C9.60457 17.5 10.5 16.6046 10.5 15.5C10.5 14.6577 9.97936 13.9371 9.24235 13.6423C9.13597 12.1653 7.90397 11 6.3998 11H3.03944C3.16995 10.8921 3.31328 10.8011 3.46919 10.7275C3.491 10.7173 3.5129 10.7074 3.53489 10.6979C3.42939 10.3308 3.37434 9.94742 3.35743 9.57125C3.3244 8.83647 3.43378 8.07099 3.65235 7.39005C3.86767 6.71923 4.20957 6.06746 4.69035 5.61631C4.99225 5.33301 5.36564 5.11884 5.7858 5.04938C5.98452 4.20952 6.49165 3.5152 7.13868 3.01151C7.97032 2.3641 9.05829 2.00586 10.1395 2.00586ZM12.75 17H14.4C15.974 17 17.25 15.724 17.25 14.15V12.3546C17.983 12.0579 18.5 11.3393 18.5 10.5C18.5 9.39543 17.6046 8.5 16.5 8.5C15.3954 8.5 14.5 9.39543 14.5 10.5C14.5 11.3393 15.017 12.0579 15.75 12.3546V14.15C15.75 14.8956 15.1456 15.5 14.4 15.5H12.75V8.50704C12.75 8.50469 12.75 8.50234 12.75 8.49999C12.75 8.49764 12.75 8.49529 12.75 8.49295V3.4174C12.75 2.70974 13.1528 2.00586 13.8605 2.00586C14.9417 2.00586 16.0297 2.3641 16.8613 3.01151C17.5083 3.5152 18.0155 4.20952 18.2142 5.04938C18.6344 5.11884 19.0078 5.33301 19.3097 5.61631C19.7904 6.06746 20.1323 6.71923 20.3477 7.39005C20.5662 8.07099 20.6756 8.83647 20.6426 9.57125C20.6257 9.94742 20.5706 10.3308 20.4651 10.6979C20.4871 10.7074 20.509 10.7173 20.5308 10.7275C20.901 10.9021 21.2002 11.1754 21.4253 11.5381C21.8504 12.2228 22 13.2094 22 14.4663C22 15.9108 21.4479 16.8917 20.7377 17.5009C20.3256 17.8544 19.8708 18.0735 19.4681 18.1905C19.3286 18.8831 18.9797 19.6636 18.449 20.3276C17.7262 21.2319 16.6027 21.9961 15.092 21.9961C14.5095 21.9961 13.9866 21.841 13.5327 21.6086C13.002 21.3369 12.75 20.744 12.75 20.1479V17ZM8 8.5C8 8.22386 8.22386 8 8.5 8C8.77614 8 9 8.22386 9 8.5C9 8.77614 8.77614 9 8.5 9C8.22386 9 8 8.77614 8 8.5ZM8.5 15C8.22386 15 8 15.2239 8 15.5C8 15.7761 8.22386 16 8.5 16C8.77614 16 9 15.7761 9 15.5C9 15.2239 8.77614 15 8.5 15ZM16 10.5C16 10.7761 16.2239 11 16.5 11C16.7761 11 17 10.7761 17 10.5C17 10.2239 16.7761 10 16.5 10C16.2239 10 16 10.2239 16 10.5Z" fill="#212121"/>
</svg>

<svg xmlns="http://www.w3.org/2000/svg" width="24" height="24"><path d="M10.14 2.006c.707 0 1.11.704 1.11 1.411V7.75h-.895a2 2 0 1 0 0 1.5h.895v10.898c0 .596-.252 1.189-.783 1.46a3.399 3.399 0 0 1-1.56.388c-1.51 0-2.633-.764-3.356-1.668a5.171 5.171 0 0 1-1.02-2.137 3.447 3.447 0 0 1-1.269-.69C2.552 16.89 2 15.91 2 14.466c0-.755.054-1.413.19-1.966H6.4c.678 0 1.24.5 1.335 1.151a2 2 0 1 0 1.507-.009A2.85 2.85 0 0 0 6.4 11H3.04a2.036 2.036 0 0 1 .495-.302 4.893 4.893 0 0 1-.178-1.127c-.033-.735.077-1.5.295-2.181.216-.67.558-1.323 1.038-1.774a2.122 2.122 0 0 1 1.096-.567c.199-.84.706-1.534 1.353-2.037.831-.648 1.92-1.006 3-1.006ZM12.75 17h1.65a2.85 2.85 0 0 0 2.85-2.85v-1.795a2 2 0 1 0-1.5 0v1.795a1.35 1.35 0 0 1-1.35 1.35h-1.65V3.417c0-.707.403-1.411 1.11-1.411 1.082 0 2.17.358 3.001 1.006.647.503 1.154 1.198 1.353 2.037.42.07.794.284 1.096.567.48.451.822 1.103 1.038 1.774.218.681.328 1.446.295 2.181-.017.376-.072.76-.178 1.127l.066.03c.37.174.67.447.894.81.425.685.575 1.671.575 2.928 0 1.445-.552 2.426-1.262 3.035a3.447 3.447 0 0 1-1.27.69 5.172 5.172 0 0 1-1.019 2.137c-.723.904-1.846 1.668-3.357 1.668a3.399 3.399 0 0 1-1.56-.387c-.53-.272-.782-.865-.782-1.461V17ZM8 8.5a.5.5 0 1 1 1 0 .5.5 0 0 1-1 0Zm.5 6.5a.5.5 0 1 0 0 1 .5.5 0 0 0 0-1Zm7.5-4.5a.5.5 0 1 0 1 0 .5.5 0 0 0-1 0Z"/></svg>
